src/pos-icons/account-music.svg

<svg height="24" viewBox="0 0 24 24" width="24" xmlns="http://www.w3.org/2000/svg"><path d="m11 14c1 0 2.05.16 3.2.44-.81.87-1.2 1.89-1.2 3.06 0 .89.25 1.73.78 2.5h-10.78v-2c0-1.19.91-2.15 2.74-2.88 1.83-.74 3.59-1.12 5.26-1.12m0-2c-1.08 0-2-.39-2.82-1.17-.8-.78-1.18-1.72-1.18-2.83 0-1.08.38-2 1.18-2.82.82-.8 1.74-1.18 2.82-1.18 1.11 0 2.05.38 2.83 1.18.78.82 1.17 1.74 1.17 2.82 0 1.11-.39 2.05-1.17 2.83s-1.72 1.17-2.83 1.17m7.5-2h1.5 2v2h-2v5.5a2.5 2.5 0 0 1 -2.5 2.5 2.5 2.5 0 0 1 -2.5-2.5 2.5 2.5 0 0 1 2.5-2.5c.36 0 .69.07 1 .21z"/></svg>

<?xml version="1.0" encoding="UTF-8"?><!DOCTYPE svg PUBLIC "-//W3C//DTD SVG 1.1//EN" "http://www.w3.org/Graphics/SVG/1.1/DTD/svg11.dtd"><svg xmlns="http://www.w3.org/2000/svg" xmlns:xlink="http://www.w3.org/1999/xlink" version="1.1" id="mdi-account-music" width="24" height="24" viewBox="0 0 24 24"><path d="M11,14C12,14 13.05,14.16 14.2,14.44C13.39,15.31 13,16.33 13,17.5C13,18.39 13.25,19.23 13.78,20H3V18C3,16.81 3.91,15.85 5.74,15.12C7.57,14.38 9.33,14 11,14M11,12C9.92,12 9,11.61 8.18,10.83C7.38,10.05 7,9.11 7,8C7,6.92 7.38,6 8.18,5.18C9,4.38 9.92,4 11,4C12.11,4 13.05,4.38 13.83,5.18C14.61,6 15,6.92 15,8C15,9.11 14.61,10.05 13.83,10.83C13.05,11.61 12.11,12 11,12M18.5,10H20L22,10V12H20V17.5A2.5,2.5 0 0,1 17.5,20A2.5,2.5 0 0,1 15,17.5A2.5,2.5 0 0,1 17.5,15C17.86,15 18.19,15.07 18.5,15.21V10Z" /></svg>
